src/img/inst.svg

<svg width="18" height="18" viewBox="0 0 18 18" fill="none" xmlns="http://www.w3.org/2000/svg">
<g clip-path="url(#clip0)">
<path d="M11.7667 0.786133H5.74588C2.97529 0.786133 0.728516 3.03291 0.728516 5.80349V11.8243C0.728516 14.5949 2.97529 16.8417 5.74588 16.8417H11.7667C14.5373 16.8417 16.7841 14.5949 16.7841 11.8243V5.80349C16.7841 3.03291 14.5373 0.786133 11.7667 0.786133ZM15.2789 11.8243C15.2789 13.761 13.7034 15.3365 11.7667 15.3365H5.74588C3.80918 15.3365 2.23372 13.761 2.23372 11.8243V5.80349C2.23372 3.86679 3.80918 2.29134 5.74588 2.29134H11.7667C13.7034 2.29134 15.2789 3.86679 15.2789 5.80349V11.8243Z" fill="white"/>
<path d="M8.6275 4.49243C6.28044 4.49243 4.3775 6.39537 4.3775 8.74243C4.3775 11.0895 6.28044 12.9924 8.6275 12.9924C10.9746 12.9924 12.8775 11.0895 12.8775 8.74243C12.8775 6.39537 10.9746 4.49243 8.6275 4.49243ZM8.6275 11.3987C7.16338 11.3987 5.97125 10.2066 5.97125 8.74243C5.97125 7.27724 7.16338 6.08618 8.6275 6.08618C10.0916 6.08618 11.2838 7.27724 11.2838 8.74243C11.2838 10.2066 10.0916 11.3987 8.6275 11.3987Z" fill="white"/>
<path d="M13.1963 4.74004C13.509 4.74004 13.7626 4.4865 13.7626 4.17373C13.7626 3.86097 13.509 3.60742 13.1963 3.60742C12.8835 3.60742 12.6299 3.86097 12.6299 4.17373C12.6299 4.4865 12.8835 4.74004 13.1963 4.74004Z" fill="white"/>
</g>
<defs>
<clipPath id="clip0">
<rect width="17" height="17" fill="white" transform="translate(0.127502 0.242432)"/>
</clipPath>
</defs>
</svg>

<svg width="18" height="18" fill="none" xmlns="http://www.w3.org/2000/svg"><g clip-path="url(#a)" fill="#fff"><path d="M11.767.786H5.746A5.018 5.018 0 0 0 .729 5.803v6.021a5.018 5.018 0 0 0 5.017 5.018h6.02a5.018 5.018 0 0 0 5.018-5.018v-6.02A5.018 5.018 0 0 0 11.767.785Zm3.512 11.038a3.516 3.516 0 0 1-3.512 3.512H5.746a3.516 3.516 0 0 1-3.512-3.512v-6.02A3.516 3.516 0 0 1 5.746 2.29h6.02a3.516 3.516 0 0 1 3.513 3.512v6.021Z"/><path d="M8.627 4.492a4.25 4.25 0 1 0 0 8.5 4.25 4.25 0 0 0 0-8.5Zm0 6.907a2.66 2.66 0 0 1-2.656-2.657 2.66 2.66 0 0 1 2.656-2.656 2.66 2.66 0 0 1 2.657 2.656A2.66 2.66 0 0 1 8.627 11.4Zm4.569-6.659a.566.566 0 1 0 0-1.133.566.566 0 0 0 0 1.133Z"/></g><defs><clipPath id="a"><path fill="#fff" transform="translate(.128 .242)" d="M0 0h17v17H0z"/></clipPath></defs></svg>
